src/images/logo.svg

<svg width="700" height="204" viewBox="0 0 700 204" fill="none" xmlns="http://www.w3.org/2000/svg">
<path d="M27.1897 145.77L28.9797 167.41L85.7897 186.93C91.8297 189.01 98.4997 188.07 103.74 184.41L133.34 163.73L133.56 143.37L102.74 161.11C98.0397 163.81 92.4497 164.5 87.2397 163L27.1797 145.76L27.1897 145.77Z" fill="white"/>
<path d="M92.78 15.99H16.5L18.28 37.62L95.4 40.88L134.68 41.54L173.97 42.2L174.42 26.37L98 16.33C96.27 16.1 94.53 15.99 92.79 15.99H92.78Z" fill="white"/>
<path d="M91.6996 65.45L20.0596 59.25L21.8496 80.88L91.9496 90.21C94.2396 90.51 96.5596 90.42 98.8096 89.93L134.24 82.28L173.07 73.89L173.52 58.05L134.46 61.91L99.0896 65.4101C96.6296 65.6501 94.1596 65.67 91.6996 65.46V65.45Z" fill="white"/>
<path d="M90.3499 114.64L23.6299 102.51L25.4099 124.14L88.7799 138.91C93.0699 139.91 97.5799 139.46 101.59 137.64L133.78 123.01L172.17 105.56L172.62 89.72L134.01 102.64L100.27 113.93C97.0699 115 93.6599 115.24 90.3499 114.64Z" fill="white"/>
<path d="M237.37 77.4199H276.7C283.19 77.4199 285.91 77.6499 288.25 78.3999C294.52 80.2899 296.7 84.5199 296.7 94.6299C296.7 102.33 295.49 106.56 292.4 109.2C289.76 111.54 285.91 112.37 278.06 112.37H248.92V127.77H237.37V77.4199ZM274.81 103.01C282.89 103.01 285 101.42 285 95.2299C285 88.4399 283.11 86.7699 275.34 86.7699H248.92V103H274.81V103.01Z" fill="white"/>
<path d="M305.82 77.4199H317.45V97.4199H357.16V77.4199H368.79V127.77H357.16V106.78H317.45V127.77H305.82V77.4199Z" fill="white"/>
<path d="M430.56 77.4199H445.36L416.67 108.82V127.77H405.04V108.82L376.13 77.4199H391.15L410.93 99.6099L430.56 77.4199Z" fill="white"/>
<path d="M512.971 100.82V106.18C512.971 115.39 512.441 118.71 510.631 122.03C509.121 124.75 506.631 126.41 502.701 127.39C499.981 128.07 495.681 128.22 480.511 128.22C467.151 128.22 460.661 127.77 457.561 126.56C452.731 124.75 450.241 121.8 449.181 116.44C448.581 113.57 448.351 110.25 448.351 103.08C448.351 89.79 449.181 85.57 452.431 82.02C454.541 79.76 457.491 78.4 461.491 77.87C466.171 77.19 471.531 76.96 486.331 76.96C501.131 76.96 506.341 78.02 509.511 81.64C511.701 84.06 512.761 87.98 512.761 93.57H501.361C501.281 90.4 500.911 89.19 499.471 88.06C497.511 86.48 494.941 86.17 485.131 86.17C466.941 86.17 464.141 86.47 462.181 88.81C460.601 90.62 460.071 93.94 460.071 101.79C460.071 111.6 460.671 115 462.791 116.81C464.981 118.77 467.851 119.15 481.511 119.15C496.461 119.15 498.041 118.85 500.311 115.6C501.291 114.32 501.671 111.9 501.671 108.43H479.251V100.81H512.991H512.971V100.82Z" fill="white"/>
<path d="M523.29 77.4199H565.94C574.77 77.4199 578.77 78.4799 581.49 81.4199C583.68 83.8399 584.74 87.7599 584.74 93.4999C584.74 99.2399 584.06 102.11 582.55 103.99C581.04 105.88 579.23 106.78 576.21 107.31C582.55 107.84 583.99 109.8 583.91 117.8V127.77H572.21V120.22C572.06 113.35 570.47 111.99 562.85 112.07H534.84V127.77H523.29V77.4199ZM562.46 102.78C570.91 102.78 573.03 101.27 573.03 95.2299C573.03 88.2799 571.29 86.8499 562.69 86.8499H534.83V102.78H562.46Z" fill="white"/>
<path d="M595.38 77.4199H607.01V127.77H595.38V77.4199Z" fill="white"/>
<path d="M618.21 77.4199H660.03C669.62 77.4199 675.81 79.2299 679.2 82.9299C682.29 86.3999 683.5 92.0599 683.5 103.16C683.5 114.26 682.07 119.92 678.22 123.47C675.05 126.41 669.69 127.77 661.23 127.77H618.2V77.4199H618.21ZM658.67 118.56C662.75 118.56 665.54 118.03 667.58 116.9C670.52 115.32 671.73 111.46 671.73 103.69C671.73 89.7199 669.54 86.9299 658.67 86.9299H629.83V118.56H658.67Z" fill="white"/>
<path d="M304.016 52.8976V30H314.589C317.919 30 319.773 30.5836 321.009 31.9911C322.519 33.7419 323 35.7673 323 40.4704C323 46.0661 322.759 47.9542 321.867 49.602C320.974 51.2155 319.807 52.1081 317.953 52.52C316.923 52.7603 315.894 52.8976 315.241 52.8976H304.016ZM306.59 50.6662H314.04C316.546 50.6662 318.331 50.1513 319.121 49.2244C320.116 47.9886 320.425 46.3064 320.425 41.9123C320.425 36.3853 320.219 35.0807 319.224 33.7419C318.4 32.6434 317.095 32.2314 314.589 32.2314H306.59V50.6662Z" fill="white" fill-opacity="0.5"/>
<path d="M289.929 30V50.4946H301.704V52.8976H287.354V30H289.929Z" fill="white" fill-opacity="0.5"/>
<path d="M283.023 30V52.8976H280.448V30H283.023Z" fill="white" fill-opacity="0.5"/>
<path d="M273.636 30H276.211V46.0318C276.211 48.7781 275.936 49.9453 275.044 51.0782C273.705 52.6917 272.023 53.138 266.976 53.138C263.921 53.138 262.651 53.0006 261.484 52.5544C258.875 51.5931 258.085 50.0483 258.085 46.0318V30H260.66V46.0318C260.66 47.8512 260.797 48.8125 261.14 49.3961C261.827 50.5633 263.166 50.9065 266.839 50.9065C272.95 50.9065 273.636 50.3916 273.636 46.0318V30Z" fill="white" fill-opacity="0.5"/>
<path d="M237 52.8976V30H247.127C250.045 30 250.903 30.1373 251.83 30.6866C253.341 31.5791 253.924 33.124 253.924 36.1106C253.924 38.9599 253.238 40.1271 251.006 40.9167V40.9854C253.753 41.6376 254.645 42.9421 254.645 46.4437C254.645 49.2931 253.89 51.1812 252.448 52.0394C251.556 52.5544 249.942 52.8976 248.191 52.8976H237ZM239.575 40.0928H246.372C248.535 40.0928 249.256 39.9898 250.011 39.5435C251.006 38.9943 251.35 38.1017 251.35 35.9733C251.35 33.9822 251.006 33.0896 250.045 32.5747C249.496 32.3001 248.878 32.2314 247.058 32.2314H239.575V40.0928ZM239.575 50.6662H245.067C248.878 50.6662 249.771 50.5976 250.629 50.22C251.659 49.7737 252.071 48.8125 252.071 46.684C252.071 44.487 251.727 43.4571 250.869 42.8735C250.045 42.3585 249.702 42.3242 246.235 42.3242H239.575V50.6662Z" fill="white" fill-opacity="0.5"/>
</svg>

<?xml version="1.0" encoding="UTF-8"?>
<svg id="a" data-name="Layer 1" xmlns="http://www.w3.org/2000/svg" viewBox="0 0 700 204">
  <g>
    <path d="M27.19,145.77l1.79,21.64,56.81,19.52c6.04,2.08,12.71,1.14,17.95-2.52l29.6-20.68.22-20.36-30.82,17.74c-4.7,2.7-10.29,3.39-15.5,1.89l-60.06-17.24h0Z" style="fill: #fff; stroke-width: 0px;"/>
    <path d="M92.78,15.99H16.5l1.78,21.63,77.12,3.26,39.28.66,39.29.66.45-15.83-76.42-10.04c-1.73-.23-3.47-.34-5.21-.34h-.01Z" style="fill: #fff; stroke-width: 0px;"/>
    <path d="M91.7,65.45l-71.64-6.2,1.79,21.63,70.1,9.33c2.29.3,4.61.21,6.86-.28l35.43-7.65,38.83-8.39.45-15.84-39.06,3.86-35.37,3.5c-2.46.24-4.93.26-7.39.05h0Z" style="fill: #fff; stroke-width: 0px;"/>
    <path d="M90.35,114.64l-66.72-12.13,1.78,21.63,63.37,14.77c4.29,1,8.8.55,12.81-1.27l32.19-14.63,38.39-17.45.45-15.84-38.61,12.92-33.74,11.29c-3.2,1.07-6.61,1.31-9.92.71Z" style="fill: #fff; stroke-width: 0px;"/>
  </g>
  <g>
    <path d="M237.37,77.42h39.33c6.49,0,9.21.23,11.55.98,6.27,1.89,8.45,6.12,8.45,16.23,0,7.7-1.21,11.93-4.3,14.57-2.64,2.34-6.49,3.17-14.34,3.17h-29.14v15.4h-11.55v-50.35h0ZM274.81,103.01c8.08,0,10.19-1.59,10.19-7.78,0-6.79-1.89-8.46-9.66-8.46h-26.42v16.23h25.89Z" style="fill: #fff; stroke-width: 0px;"/>
    <path d="M305.82,77.42h11.63v20h39.71v-20h11.63v50.35h-11.63v-20.99h-39.71v20.99h-11.63v-50.35Z" style="fill: #fff; stroke-width: 0px;"/>
    <path d="M430.56,77.42h14.8l-28.69,31.4v18.95h-11.63v-18.95l-28.91-31.4h15.02l19.78,22.19,19.63-22.19h0Z" style="fill: #fff; stroke-width: 0px;"/>
    <path d="M512.97,100.82v5.36c0,9.21-.53,12.53-2.34,15.85-1.51,2.72-4,4.38-7.93,5.36-2.72.68-7.02.83-22.19.83-13.36,0-19.85-.45-22.95-1.66-4.83-1.81-7.32-4.76-8.38-10.12-.6-2.87-.83-6.19-.83-13.36,0-13.29.83-17.51,4.08-21.06,2.11-2.26,5.06-3.62,9.06-4.15,4.68-.68,10.04-.91,24.84-.91s20.01,1.06,23.18,4.68c2.19,2.42,3.25,6.34,3.25,11.93h-11.4c-.08-3.17-.45-4.38-1.89-5.51-1.96-1.58-4.53-1.89-14.34-1.89-18.19,0-20.99.3-22.95,2.64-1.58,1.81-2.11,5.13-2.11,12.98,0,9.81.6,13.21,2.72,15.02,2.19,1.96,5.06,2.34,18.72,2.34,14.95,0,16.53-.3,18.8-3.55.98-1.28,1.36-3.7,1.36-7.17h-22.42v-7.62h33.74-.02Z" style="fill: #fff; stroke-width: 0px;"/>
    <path d="M523.29,77.42h42.65c8.83,0,12.83,1.06,15.55,4,2.19,2.42,3.25,6.34,3.25,12.08s-.68,8.61-2.19,10.49c-1.51,1.89-3.32,2.79-6.34,3.32,6.34.53,7.78,2.49,7.7,10.49v9.97h-11.7v-7.55c-.15-6.87-1.74-8.23-9.36-8.15h-28.01v15.7h-11.55s0-50.35,0-50.35ZM562.46,102.78c8.45,0,10.57-1.51,10.57-7.55,0-6.95-1.74-8.38-10.34-8.38h-27.86v15.93h27.63Z" style="fill: #fff; stroke-width: 0px;"/>
    <path d="M595.38,77.42h11.63v50.35h-11.63v-50.35Z" style="fill: #fff; stroke-width: 0px;"/>
    <path d="M618.21,77.42h41.82c9.59,0,15.78,1.81,19.17,5.51,3.09,3.47,4.3,9.13,4.3,20.23s-1.43,16.76-5.28,20.31c-3.17,2.94-8.53,4.3-16.99,4.3h-43.03v-50.35h.01ZM658.67,118.56c4.08,0,6.87-.53,8.91-1.66,2.94-1.58,4.15-5.44,4.15-13.21,0-13.97-2.19-16.76-13.06-16.76h-28.84v31.63s28.84,0,28.84,0Z" style="fill: #fff; stroke-width: 0px;"/>
  </g>
</svg>
